material/.icons/material/bell-sleep-outline.svg

<svg xmlns="http://www.w3.org/2000/svg" viewBox="0 0 24 24"><path d="M10 21h4a2 2 0 01-2 2 2 2 0 01-2-2m11-2v1H3v-1l2-2v-6c0-3.1 2.03-5.83 5-6.71V4a2 2 0 012-2 2 2 0 012 2v.29c2.97.88 5 3.61 5 6.71v6l2 2m-4-8a5 5 0 00-5-5 5 5 0 00-5 5v7h10v-7M9 9v2h3.24L9 13.7V16h6v-2h-3.24L15 11.3V9H9z"/></svg>

<?xml version="1.0" encoding="UTF-8"?><!DOCTYPE svg PUBLIC "-//W3C//DTD SVG 1.1//EN" "http://www.w3.org/Graphics/SVG/1.1/DTD/svg11.dtd"><svg xmlns="http://www.w3.org/2000/svg" xmlns:xlink="http://www.w3.org/1999/xlink" version="1.1" id="mdi-bell-sleep-outline" width="24" height="24" viewBox="0 0 24 24"><path d="M10,21H14A2,2 0 0,1 12,23A2,2 0 0,1 10,21M21,19V20H3V19L5,17V11C5,7.9 7.03,5.17 10,4.29C10,4.19 10,4.1 10,4A2,2 0 0,1 12,2A2,2 0 0,1 14,4C14,4.1 14,4.19 14,4.29C16.97,5.17 19,7.9 19,11V17L21,19M17,11A5,5 0 0,0 12,6A5,5 0 0,0 7,11V18H17V11M9,9V11H12.24L9,13.7V16H15V14H11.76L15,11.3V9H9Z" /></svg>
